other/printbot.svg

<svg version="1.1" viewBox="0 0 48 48" xmlns="http://www.w3.org/2000/svg"><defs><style>.a{fill:none;stroke:#fff;stroke-linecap:round;stroke-linejoin:round;}</style></defs><path d="m16.4202 15.1251h15.1601" style="-inkscape-stroke:none;fill:none;font-variation-settings:normal;stop-color:#000000;stroke-linecap:round;stroke-linejoin:round;stroke-width:.999951;stroke:#ffffff"/><path d="m16.4202 18.7196h15.1601" style="-inkscape-stroke:none;fill:none;font-variation-settings:normal;stop-color:#000000;stroke-linecap:round;stroke-linejoin:round;stroke-width:.999951;stroke:#ffffff"/><path d="m16.4202 11.2712h15.1601" style="-inkscape-stroke:none;fill:none;font-variation-settings:normal;stop-color:#000000;stroke-linecap:round;stroke-linejoin:round;stroke-width:.999951;stroke:#ffffff"/><path d="m13.8622 6.34204v14.7998h-6.02133c-1.36672 0-2.46699 1.1-2.46699 2.46637v15.5834c0 1.36637 1.10028 2.46637 2.46699 2.46637h32.3183c1.36671 0 2.46699-1.1 2.46699-2.46637v-15.5834c0-1.36637-1.10028-2.46637-2.46699-2.46637h-6.02133v-14.7998z" style="fill:none;stroke-linecap:round;stroke-linejoin:round;stroke-width:.999951;stroke:#ffffff"/><rect x="13.8624" y="6.34204" width="20.2752" height="17.3796" style="fill:none;stroke-linecap:round;stroke-linejoin:round;stroke-width:.999951;stroke:#ffffff"/><path d="m10.6306 21.3023v10.9049s-0.01476 1.5718 1.67349 1.55784c0.827169-0.0064 1.67349 0 1.67349 0h20.0819s0.769437 0.02563 1.6735 0c0.765401-0.02169 1.49146-0.500394 1.67349-1.5732v-11.0124" style="-inkscape-stroke:none;fill:none;font-variation-settings:normal;stop-color:#000000;stroke-linecap:round;stroke-linejoin:round;stroke-width:.999951;stroke:#ffffff"/><ellipse cx="40.1559" cy="35.763" rx=".822331" ry=".822122" style="fill:none;stroke-linecap:round;stroke-linejoin:round;stroke-width:.999951;stroke:#ffffff"/><path d="m12.3817 41.658v-3.25702s-6e-6 -1.8e-5 -3e-6 -2.4e-5c0.05782-0.188925 0.169669-0.465264 0.367283-0.465264h22.7714s2.2e-5 -9e-6 3.2e-5 -4e-6c0.181901 0.07721 0.367249 0.267722 0.367249 0.465291v3.25702" style="-inkscape-stroke:none;fill:none;font-variation-settings:normal;stop-color:#000000;stroke-linecap:round;stroke-linejoin:round;stroke-width:.999951;stroke:#ffffff"/></svg>

<svg xmlns="http://www.w3.org/2000/svg" viewBox="0 0 48 48"><defs><style>.a{fill:none;stroke:#fff;stroke-linecap:round;stroke-linejoin:round;}.b{fill:#fff;}</style></defs><path class="a" d="M16.42,15.1251H31.58"/><path class="a" d="M16.42,18.72H31.58"/><path class="a" d="M16.42,11.2712H31.58"/><path class="a" d="M13.8622,6.342v14.8H7.8409a2.4612,2.4612,0,0,0-2.467,2.4664V39.1916a2.4612,2.4612,0,0,0,2.467,2.4664H40.1591a2.4612,2.4612,0,0,0,2.467-2.4664V23.6082a2.4612,2.4612,0,0,0-2.467-2.4664H34.1378V6.342Z"/><rect class="a" x="13.8624" y="6.342" width="20.2752" height="17.3796"/><path class="a" d="M10.6306,21.3023V32.2072a1.546,1.546,0,0,0,1.6735,1.5578c.8271-.0064,1.6735,0,1.6735,0H34.06s.7694.0256,1.6735,0a1.7169,1.7169,0,0,0,1.6734-1.5732V21.1794"/><circle class="b" cx="40.1559" cy="35.763" r="0.7502"/><path class="a" d="M12.3817,41.658V38.4009c.0578-.1889.17-.4652.3673-.4652H35.52a.5793.5793,0,0,1,.3672.4653v3.257"/></svg>
